X: 3
T:Stoney Steps
M:4/4
L:1/8
S:Offord
Z:p
K:G
G2 BG dBgB|ecAd GFED|ECB,C  A,2 AB|cABG GFED|!
G2 BG dBgB|ecAd GFED|ECB,C  A,2 AB|cAGF G4||!
G,A,B,C DEFG|ABcD B2G2|BcAF G2 ef|ged^cd4|!
dBgd =cBed|cBAG FEDC|B,DGD CEAc|BAGF G2z2||
